!!!!SEGMENT: pl-wtm--r-131-m--003_moniuszko-stanislaw--msza-swieta-slowa-odynca-graduale.krn
!!!cenid: 18xx:1726
!!!COM: Moniuszko, Stanisław
!!!COM-rismid: pe30008351
!!!CDT: 1819/05/05-1872/06/04
!!!CNT: Polish
!!!OTL: Msza święta słowa Odyńca – Graduale
!!!PDT:
!!!AGN: Sacred; Mass
!!!SMS-siglum: PL-Wtm
!!!SMS-shelfmark: R 131/M
!!!SMS-shelfwork: 001-003 M
!!!SMS-variant:
!!!SMS-altvar:
!!!NIFC-rismid: 1001097550
!!!URL-scan: http://repozytorium.nifc.pl/skany/pl-wtm-nut--r131m
!!!ONB-nifc: UWAGA: części Mszy: 1. Kyrie, 2. Gloria, 3. Graduale, 4. Credo, 5. Sanctus, 6. Benedictus, 7. Agnus
**kern	**kern	**dynam	**kern	**dynam	**kern	**dynam	**kern	**dynam	**kern	**dynam	**kern	**dynam
*part6	*part6	*part6	*part5	*part5	*part4	*part4	*part3	*part3	*part2	*part2	*part1	*part1
*	*	*	*group1	*	*group1	*	*group1	*	*group1	*	*group1	*
*staff7	*staff6	*	*staff5	*	*staff4	*	*staff3	*	*staff2	*	*staff1	*
*	*I"Organ.	*	*I"Cbs.	*	*I"Vcell.	*	*I"Vla.	*	*I"V. 2.	*	*I"V. I.	*
*	*I'org	*	*I'cb	*	*I'vlc	*	*I'vla	*	*I'vl 2	*	*I'vl 1	*
*clefF4	*clefG2	*	*clefF4	*	*clefF4	*	*clefC3	*	*clefG2	*	*clefG2	*
*k[f#c#g#d#]	*k[f#c#g#d#]	*	*k[f#c#g#d#]	*	*k[f#c#g#d#]	*	*k[f#c#g#d#]	*	*k[f#c#g#d#]	*	*k[f#c#g#d#]	*
*E:	*E:	*	*E:	*	*E:	*	*E:	*	*E:	*	*E:	*
*M3/4	*M3/4	*	*M3/4	*	*M3/4	*	*M3/4	*	*M3/4	*	*M3/4	*
=1	=1	=1	=1	=1	=1	=1	=1	=1	=1	=1	=1	=1
*all\right	*all\right	*	*all\right	*	*all\right	*	*all\right	*	*all\right	*	*all\right	*
*	*	*	*	*	*2\right	*	*	*	*	*	*	*
!	!	!	!	!	!	!	!LO:TX:t=P:problem:krzyżyki:F#, c#, G#, d#	!	!LO:TX:t=P:problem:krzyżyki:f#, cc#, g#, dd#	!	!LO:TX:t=P:problem:krzyżyki:f#, cc#, g#, dd#	!
!	!	!	!	!	!	!	!	!	!	!	!LO:TX:a:t=Andante.	!
!	!	!	!	!	!	!LO:DY:t=pp.	!	!LO:DY:rj:t=pp.	!	!LO:DY:rj:t=pp.	!	!LO:DY:rj
2.r	2.r	.	2.r	.	([<2.e\	pp	4e\	pp	4g#/	pp	4cc#/	pp
.	.	.	.	.	.	.	(8e\L|	.	(8e/L|	.	(8g#/L|	.
.	.	.	.	.	.	.	8e\|	.	8f#/|	.	8a/|	.
.	.	.	.	.	.	.	8e\|	.	8g#/|	.	8b/|	.
.	.	.	.	.	.	.	8e\J)|	.	8a/J)|	.	8cc#/J)|	.
=2	=2	=2	=2	=2	=2	=2	=2	=2	=2	=2	=2	=2
2.r	2.r	.	2.r	.	4e\]	.	(4e\	.	2.f#/	.	(4cc#\	.
.	.	.	.	.	4d#\	.	4d#\	.	.	.	4b\	.
.	.	.	.	.	4c#\	.	4c#\)	.	.	.	4a\)	.
=3	=3	=3	=3	=3	=3	=3	=3	=3	=3	=3	=3	=3
2.r	2.r	.	2.r	.	2.B\)	.	4B/	.	4d#/	.	4a\	.
.	.	.	.	.	.	.	(8B'/L	.	8e'/L	.	8a'\L	.
.	.	.	.	.	.	.	8B'/	.	8f#'/	.	8a'\	.
.	.	.	.	.	.	.	8B'/	.	8.g#^/	.	8.b^\	.
.	.	.	.	.	.	.	8B'/J)	.	.	.	.	.
.	.	.	.	.	.	.	.	.	16d#/Jk	.	16f#\Jk	.
=4	=4	=4	=4	=4	=4	=4	=4	=4	=4	=4	=4	=4
2.r	2.r	.	2.r	.	(4B\	.	(4B/	.	(4d#/	.	(4a 4f#/	.
.	.	.	.	.	8e\)	.	8e\)	.	8e/)	.	8g#/)	.
.	.	.	.	.	8r	.	8r	.	8r	.	8r	.
.	.	.	.	.	8e\	.	8e\	.	8f#/	.	8b\	.
.	.	.	.	.	8r	.	8r	.	8r	.	8r	.
=5	=5	=5	=5	=5	=5	=5	=5	=5	=5	=5	=5	=5
*	*^	*	*	*	*	*	*	*	*	*	*	*
*2\right	*	*2\right	*	*	*	*	*	*2\right	*	*	*	*	*
!	!	!	!	!	!	!	!	!	!	!	!LO:DY:rj	!	!
([<2.e\	4.b/	2g#\	.	2.r	.	([<2.e\	sf	([<2.e\	sf	[2g#/	sf	4ee\	sf
.	.	.	.	.	.	.	.	.	.	.	.	8dd#\L	.
.	8cc#/L	.	.	.	.	.	.	.	.	.	.	8cc#\	.
.	8b/	4gn\	.	.	.	.	.	.	.	8g#/L]	.	8b\	.
.	8a#X/J	.	.	.	.	.	.	.	.	8f#/J	.	8a#X\J	.
=6	=6	=6	=6	=6	=6	=6	=6	=6	=6	=6	=6	=6	=6
4e\]	(4a#X/	2f#\	.	2.r	.	4e\]	.	4e\]	.	2f#/	.	(4a#X\	.
8d#\)	8b/)	.	.	.	.	4d#\)	.	4d#\)	.	.	.	4b\)	.
8r	8r	.	.	.	.	.	.	.	.	.	.	.	.
!	!	!	!	!	!	!	!LO:DY:t=ppp.	!	!	!	!	!	!
4r	4r	4ryy	.	.	.	4B\	ppp	4B\|	.	4B'/	.	4b\|	.
*	*v	*v	*	*	*	*	*	*	*	*	*	*	*
=7	=7	=7	=7	=7	=7	=7	=7	=7	=7	=7	=7	=7
*	*	*	*	*	*	*	*	*	*^	*	*	*
*	*	*	*	*	*	*	*	*	*	*2\right	*	*	*
!	!	!	!	!	!	!	!	!LO:DY:rj:t=ppp.	!	!	!LO:DY:rj	!	!LO:DY:rj:t=ppp.
2.ryy	2.r	.	2.r	.	(4e\	.	(4e/	ppp	2.gn/	2.e\	ppp	(4.b\	ppp
.	.	.	.	.	8dn\L	.	8dn/L	.	.	.	.	.	.
.	.	.	.	.	8cn\	.	8cn/	.	.	.	.	8ccn\L	.
.	.	.	.	.	8Gn\	.	8Gn/	.	.	.	.	8ddn\	.
.	.	.	.	.	8A\J)	.	8A/J)	.	.	.	.	8cc\J)	.
!!LO:LB:g=original
=8	=8	=8	=8	=8	=8	=8	=8	=8	=8	=8	=8	=8	=8
*	*	*	*	*	*	*	*	*	*	*	*	*2\right	*
2.r	2.r	.	2.r	.	[2B\	.	[2B/	.	[2f#/	[>2d#X\	.	(2b\	.
.	.	.	.	.	8B\]	.	8B/]	.	8f#/]	8d#\]	.	8b\)	.
.	.	.	.	.	8r	.	8r	.	8r	8ryy	.	8r	.
*	*	*	*	*	*	*	*	*	*v	*v	*	*	*
=9	=9	=9	=9	=9	=9	=9	=9	=9	=9	=9	=9	=9
2.r	2.r	.	2.r	.	2.e\	.	4e\	.	4g#/	.	4b\	.
.	.	.	.	.	.	<	(8e'\L	<	(8e/L|	<	(8g#\L|	<
.	.	.	.	.	.	.	8e'\	.	8f#/|	.	8a\|	.
.	.	.	.	.	.	.	8e'\	.	8g#/|	.	8b\|	.
.	.	.	.	.	.	[	8e'\J	[[	8a/J)|	[[	8cc#\J)|	[[
=10	=10	=10	=10	=10	=10	=10	=10	=10	=10	=10	=10	=10
2.r	2.r	.	2.r	.	(4d#\	>	(4d#\)	.	2f#/	.	(4cc#\	>
.	.	.	.	.	4dn\	.	4dn\	.	.	.	4f#/)	.
.	.	.	.	.	4c#\)	]	4c#\)	.	([4fn^/	.	4g#/	]
=11	=11	=11	=11	=11	=11	=11	=11	=11	=11	=11	=11	=11
2.r	2.r	.	2.r	.	2cn\	.	2cn/	.	4f/]	.	4a/	.
.	.	.	.	.	.	.	.	.	4e/	.	8g#/L	.
.	.	.	.	.	.	.	.	.	.	.	8a/	.
.	.	.	.	.	4B\	.	4B/	.	4d#/)	.	8.b/	.
.	.	.	.	.	.	.	.	.	.	.	16f#/Jk	.
=12	=12	=12	=12	=12	=12	=12	=12	=12	=12	=12	=12	=12
2.ryy	2.ryy	.	2.r	.	2E\	.	2B/	.	(4d#/	.	(4a 4f#/	.
.	.	.	.	.	.	.	.	.	8e/)	.	8g#/)	.
.	.	.	.	.	.	.	.	.	8r	.	8r	.
.	.	.	.	.	8B\	.	8B/	.	8b\	.	8b\	.
.	.	.	.	f	8r	f	8r	.	8r	f	8r	f
=13	=13	=13	=13	=13	=13	=13	=13	=13	=13	=13	=13	=13
*^	*	*	*	*	*	*	*	*	*	*	*	*
*ped	*	*	*	*2\right	*	*	*	*	*	*	*	*	*
2.E/	2.E\	2g# 2B/	.	2.E\	.	(2E\	.	2B/	f	2g#/	.	4ee\	.
.	.	.	.	.	.	.	.	.	.	.	.	8dd#\L	.
.	.	.	.	.	.	.	.	.	.	.	.	8cc#\	.
.	.	4gn 4e/	.	.	.	[4e\)	.	[4e^\	.	4gn/	.	8b\	.
.	.	.	.	.	.	.	.	.	.	.	.	8a#X\J	.
=14	=14	=14	=14	=14	=14	=14	=14	=14	=14	=14	=14	=14	=14
*	*	*^	*	*	*	*	*	*	*	*	*	*	*
2.BB/	2.BB\	2.f#/	4e\	.	2.BB/	.	4e\]	.	4e\]	.	2.f#/	.	(4a#X\	.
.	.	.	8d#\L	.	.	.	8d#\L	.	8d#\L	.	.	.	4b\)	.
.	.	.	8c#\	.	.	.	8c#\	.	8c#\	.	.	.	.	.
.	.	.	8B\	.	.	.	8B\	.	8B\	.	.	.	[4b^\	.
.	.	.	8c#\J	.	.	.	8c#\J	.	8c#\J	.	.	.	.	.
=15	=15	=15	=15	=15	=15	=15	=15	=15	=15	=15	=15	=15	=15	=15
2B 2BB/	2BB\	4.f#/	2.dn\	.	2B\	.	2dn\	.	2dn\	.	2f#/	.	4b/]	.
.	.	.	.	.	.	.	.	.	.	.	.	.	8an/L	.
.	.	8g#/L	.	.	.	.	.	.	.	.	.	.	8g#/	.
4E/	4E\	8f#/	.	.	4E\	.	[4d^\	.	[4d^\	.	8f#/L	.	8f#/	.
.	.	8g#/J	.	.	.	.	.	.	.	.	8e/J	.	8g#/J	.
*	*	*v	*v	*	*	*	*	*	*	*	*	*	*	*
=16	=16	=16	=16	=16	=16	=16	=16	=16	=16	=16	=16	=16	=16
!	!	!LO:SIC:v:n:=2s=4dn	!	!	!	!	!	!	!	!	!	!	!
2AA/	2AA\	(4g# (4d#/	.	2A\	.	4d\]	.	4d\]	.	2e/	.	(4g#/	.
.	.	8a 8c#/))	.	.	.	8c#\L	>	8c#/L	>	.	.	4a/)	.
.	.	8r	.	.	.	8B\	.	8B/	.	.	.	.	.
4r	4ryy	4r	.	4r	.	8A\	.	8A/	.	4r	.	4r	.
.	.	.	.	.	.	8B\J	]]	8B/J	]]	.	.	.	.
*v	*v	*	*	*	*	*	*	*	*	*	*	*	*
!!LO:PB:g=original
=17	=17	=17	=17	=17	=17	=17	=17	=17	=17	=17	=17	=17
!	!	!	!	!	!	!LO:DY:rj	!	!LO:DY:rj	!	!LO:DY:rj	!	!LO:DY:rj
2.r	2.r	.	2.r	.	2cn\	p	(2cn/	p	2.e/	p	(8a\L	p
.	.	.	.	.	.	.	.	.	.	.	8ccn\J	.
.	.	.	.	.	.	.	.	.	.	.	4.ee\)	.
.	.	.	.	.	4B\	.	4B/)	.	.	.	.	.
.	.	.	.	.	.	.	.	.	.	.	8gn/	.
=18	=18	=18	=18	=18	=18	=18	=18	=18	=18	=18	=18	=18
2.r	2.r	.	2.r	.	(8A\L	.	(8A/L	.	2.e/	.	2f#/	.
.	.	.	.	.	8cn\J)	.	8cn/J)	.	.	.	.	.
.	.	.	.	.	4e\	.	4e\	.	.	.	.	.
.	.	.	.	.	4B\	.	4B/	.	.	.	4gn/	.
=19	=19	=19	=19	=19	=19	=19	=19	=19	=19	=19	=19	=19
!	!	!	!	!	!	!	!	!	!	!	!LO:TUP:a:problem:klamra łukowa	!
2.r	2.r	.	2.r	.	2cn\	.	2cn/	<	2.e/	<	12a\L	<
.	.	.	.	.	.	.	.	.	.	.	12b\	.
.	.	.	.	.	.	.	.	.	.	.	12ccn\J	.
.	.	.	.	.	.	.	.	.	.	.	4.ee\	.
.	.	.	.	.	4B\	.	4B/	[	.	[	.	[
.	.	.	.	.	.	.	.	.	.	.	8ee\	.
=20	=20	=20	=20	=20	=20	=20	=20	=20	=20	=20	=20	=20
*^	*	*	*	*	*	*	*	*	*	*	*	*
!	!	!	!	!	!	!LO:TX:b:t=P:problem:diminuendolike accent	!	!LO:TX:t=P:problem:po poprawce kopisty nuta znalazła się przed kreską taktową	!	!	!LO:DY:t=fp.	!	!LO:DY:t=fp.
[2c# [2A#X;/	2.r;>	[2f# [>2e;/	.	2.r;	.	2A#X^<;\	sf	2A#X;/	fp	2f# 2e 2c#X/	fp	2ee;\	fp
!	!	!	!	!	!	!	!LO:DY:rj	!	!LO:DY:rj	!	!LO:DY:rj	!	!
4c#] 4A#/]	.	4f#_ 4e/]	.	.	.	4A#\	p	4A#X/	p	4f#/	p	4ee\	p
*v	*v	*	*	*	*	*	*	*	*	*	*	*	*
=21	=21	=21	=21	=21	=21	=21	=21	=21	=21	=21	=21	=21
8B/	8f#/]	.	2.r	.	2.B\	.	4B/	.	4f#/	.	4dd#\	.
8rB	8r	.	.	.	.	.	.	.	.	.	.	.
4rB	4r	.	.	.	.	.	(8e\L|	.	(8g#/L|	.	(8ee\L|	.
.	.	.	.	.	.	.	8f#\|	.	8a/|	.	8dd#\|	.
4rB	4r	.	.	.	.	.	8e\|	.	8a/|	.	8cc#\|	.
.	.	p	.	.	.	.	8d#\J|	.	8a/J)|	.	8b\J)|	.
=22	=22	=22	=22	=22	=22	=22	=22	=22	=22	=22	=22	=22
2.r	(2e/	.	2.r	.	4B\	.	4e\)	.	(8g#/L	.	(4b\	.
.	.	.	.	.	.	.	.	.	8b/)	.	.	.
.	.	.	.	.	(8c#'\L	.	(8c#'/L	.	(8a/|	.	4ee\	.
.	.	.	.	.	8B'\	.	8B'/	.	8g#/|	.	.	.
!	!	!	!LO:TX:b:t=pizzi	!	!	!	!	!	!	!	!	!
.	4B/)	.	.	.	8A'\	.	8A'/	.	8f#/|	.	4b\)	.
.	.	.	.	.	8G#'\J)	.	8G#'/J)	.	8e/J)|	.	.	.
=23	=23	=23	=23	=23	=23	=23	=23	=23	=23	=23	=23	=23
*^	*	*	*	*	*	*	*	*	*	*	*	*
2F#/	2.rGG	4B/	.	4B\	.	2F#\	.	(4B/	.	(4d#/	.	4b/	.
.	.	4r	.	4r	.	.	.	4c#/	.	4e/	.	(8a/L	.
.	.	.	.	.	.	.	.	.	.	.	.	8g#/	.
[<4B/	.	4r	.	4r	.	([<4B\	.	4d#/)	.	4f#/)	.	8a/	.
.	.	.	.	.	.	.	.	.	.	.	.	8f#/J)	.
=24	=24	=24	=24	=24	=24	=24	=24	=24	=24	=24	=24	=24	=24
4B/]	2.rGG	2.ryy	.	2.ryy	.	4B\]	.	2.e\	.	2e/	.	(8g#/L	.
.	.	.	.	.	.	.	.	.	.	.	.	8b/J)	.
(<8A/L|<	.	.	.	.	.	8A'\L	.	.	.	.	.	2b/	.
8G#/|<	.	.	.	.	.	8G#'\	.	.	.	.	.	.	.
8F#/|<	.	.	.	.	.	8F#'\	.	.	.	(8f#/L	.	.	.
8E/J)|<	.	.	.	.	.	8E'\J)	.	.	.	8g#/J)	.	.	.
=25	=25	=25	=25	=25	=25	=25	=25	=25	=25	=25	=25	=25	=25
[2.BB/	2.rGG	2.ryy	.	2.ryy	.	[2.B\	.	4f#\	.	4f#/	.	4dd#\	.
.	.	.	.	.	.	.	.	(8e'\L	.	(8g#/L|	.	(8ee\L|	.
.	.	.	.	.	.	.	.	8f#'\	.	8a/|	.	8dd#\|	.
.	.	.	.	.	.	.	.	8g#'\	.	8b/|	.	8cc#\|	.
.	.	.	.	.	.	.	.	8f#'\J)	.	8a/J)|	.	8dd#\J)|	.
*v	*v	*	*	*	*	*	*	*	*	*	*	*	*
=26	=26	=26	=26	=26	=26	=26	=26	=26	=26	=26	=26	=26
!LO:TX:a:t=P:problem:brak początku łuku	!	!	!	!	!	!	!	!	!	!	!	!
(>2.BB/]	2.ryy	.	2.ryy	.	2.B^\_	.	(8e^\L	.	(8g#^/L	.	(2ee\	.
.	.	.	.	.	.	.	8g#\)	.	8b/)	.	.	.
.	.	.	.	.	.	.	8f#\|	.	(8a/|	.	.	.
.	.	.	.	.	.	.	8e\|	.	8g#/|	.	.	.
.	.	.	.	.	.	.	8d#\|	.	8f#/|	.	4b\)	.
.	.	.	.	.	.	.	8c#\J|	.	8e/J)|	.	.	.
!!LO:LB:g=original
=27	=27	=27	=27	=27	=27	=27	=27	=27	=27	=27	=27	=27
*^	*	*	*	*	*	*	*	*	*	*	*	*
!	!	!	!	!	!	!LO:TX:a:t=P:problem:brak zakończenia ligatury	!	!	!	!	!	!	!
4B/)	2.rBB	2.r	.	2.r	.	2.B\_	.	4B\	.	(8d#/L	.	4b\	.
.	.	.	.	.	.	.	.	.	.	8f#/J)	.	.	.
4rB	.	.	.	.	.	.	.	4c#\	.	4e/	.	(8a\L	.
.	.	.	.	.	.	.	.	.	.	.	.	8cc#\	.
4rB	.	.	.	.	.	.	.	4d#\	.	4f#/	.	8b\)	.
.	.	.	.	.	.	.	.	.	.	.	.	8a\J	.
=28	=28	=28	=28	=28	=28	=28	=28	=28	=28	=28	=28	=28	=28
2.rGG	2.r	8r	.	2.r	.	(8B\L]	.	8e\	.	2.e/	.	2.g#/	.
.	.	8c#/	.	.	.	8c#\	.	8c#\L|	.	.	.	.	.
.	.	8qe/	.	.	.	8qe/	.	8qe/	.	.	.	.	.
.	.	8dn/L	.	.	.	8dn\	.	(8dn\	.	.	.	.	.
.	.	8c#/	.	.	.	8c#\)	.	8c#\)	.	.	.	.	.
.	.	8d/	.	.	.	(8d\	.	(8d\	.	.	.	.	.
*ped	*	*	*	*	*	*	*	*	*	*	*	*	*
.	.	8B/J	.	.	.	8B\J)	.	8B\J)	.	.	.	.	.
=29	=29	=29	=29	=29	=29	=29	=29	=29	=29	=29	=29	=29	=29
2A [<2E/	2.AA\	2a 2c#/	.	[2.AA/	.	2A\	.	2e 2c#\	.	2e 2c#/	.	(8a\L	.
.	.	.	.	.	.	.	.	.	.	.	.	8cc#\J)	.
.	.	.	.	.	.	.	.	.	.	.	.	4.ee\	.
!	!	!	!	!	!	!	!	!	!	!LO:SIC:v:s=4dn	!	!	!
4B 4E/]	.	4a 4dn/	.	.	.	4E\	.	4d#\	.	4d#/	.	.	.
.	.	.	.	.	.	.	.	.	.	.	.	8g#/	.
=30	=30	=30	=30	=30	=30	=30	=30	=30	=30	=30	=30	=30	=30
*	*	*^	*	*	*	*	*	*	*	*	*	*	*
2A/	2E 2AA\	4a/	2c#\	.	2.AA/_	.	2E\	.	8c#\L	.	(8c#/L	.	2a/	.
.	.	.	.	.	.	.	.	.	8e\J	.	8e/J	.	.	.
.	.	4e/	.	.	.	.	.	.	8a\	.	8a/)	.	.	.
.	.	.	.	.	.	.	.	.	8r	.	8r	.	.	.
!	!	!	!	!	!	!	!	!	!LO:SIC:v:s=4dn	!	!LO:TX:a:t=P:problem:skreślon nuta	!	!	!
4G#/	4ryy	4b/	4dn\	.	.	.	4E\	.	4d#\|	.	4B/|	.	4e/|	.
=31	=31	=31	=31	=31	=31	=31	=31	=31	=31	=31	=31	=31	=31	=31
4A/	2.E [2.AA\	2a/	4c#\	.	2.AA^/_	.	2A^\	.	2e 2c#^\	.	2e 2c#^/	.	(8a^\L	.
.	.	.	.	.	.	.	.	.	.	.	.	.	8cc#\J)	.
4c#/	.	.	[2e\	.	.	.	.	.	.	.	.	.	4.ee\	.
4B/	.	[4g#/	.	.	.	.	4B\	.	4B/	.	4e/	.	.	.
.	.	.	.	.	.	.	.	.	.	.	.	.	8g#/	.
=32	=32	=32	=32	=32	=32	=32	=32	=32	=32	=32	=32	=32	=32	=32
2c# 2A;\	4AA\]	2g#;/]	2e\]	.	4AA/]	.	2A;\	.	2c#;\	.	2e;/	.	2g#;/	.
.	4rGG;>	.	.	.	4r;	.	.	.	.	.	.	.	.	.
4r	4ryy	4f#/	4f#\	.	4r	.	4r	.	4r	.	4r	.	4f#/	.
*	*	*v	*v	*	*	*	*	*	*	*	*	*	*	*
=33	=33	=33	=33	=33	=33	=33	=33	=33	=33	=33	=33	=33	=33
*	*^	*	*	*	*	*	*	*	*	*	*	*	*
2B/	8A\L	2.rDD	8f#L 8d#/	.	2.r	.	8A\L|	<	8B/L|	<	(>8d#/L|	<	(>8f#'/L	<
.	8G#\J	.	8g# 8e/	.	.	.	8G#\J|	.	8B/|	.	8e/|	.	8g#'/	.
.	4F#\	.	8a 8f#/	.	.	.	4F#\|	.	8B/|	.	8f#/|	.	8a'/	.
.	.	.	8b 8g#/	.	.	.	.	.	8B/|	.	8g#/|	.	8b'/	.
4B/	4B\	.	8cc# 8a/	.	.	.	4B\	[	8B/|	.	8a/|	.	8cc#'/	.
.	.	.	8dd#J 8f#/	.	.	.	.	.	8B/J|	[	8aJ 8f#/)|	[	8dd#'/J)	[
*	*v	*v	*	*	*	*	*	*	*	*	*	*	*	*
=34	=34	=34	=34	=34	=34	=34	=34	=34	=34	=34	=34	=34	=34
(4d# 4B#X\	2.rGG	(4ff# (4a/	.	2.r	.	(4B#X\	sf >	(4d#\	sf >	(4a/	sf >	(4ff#\	sf >
4e 4c#\)	.	4ee) 4g#/)	.	.	.	4c#\)	]	4e\)	]	4g#/)	.	4ee\)	.
!	!	!	!	!	!	!	!	!	!	!LO:TX:a:t=P:problem: 4e skreślone	!	!	!
(4e (4G#\	.	(4cc# (4a/	.	.	.	(4A\	.	[4e\	.	(>4a 4e/	]	(4cc#\	]
=35	=35	=35	=35	=35	=35	=35	=35	=35	=35	=35	=35	=35	=35
*	*^	*^	*	*	*	*	*	*	*	*	*	*	*
8Bn/))	4ryy	2.rFF	8bL) 8g#/)	4ryy	.	2.r	.	8Bn\)	.	8e\]	.	8g#/)	.	8b\)	.
8r	.	.	8e/J	.	.	.	.	8r	.	8r	.	8r	.	8r	.
4.B/	2BB/	.	4.g#/	4d#\	.	.	.	4B\	.	(4.B^/	.	4e/	.	(>4.g#^/	.
.	.	.	.	4d#\	.	.	.	4BB/	.	.	.	4d#/	.	.	.
8A/	.	.	8f#/	.	.	.	.	.	.	8A/	.	.	.	8f#/	.
*	*v	*v	*	*	*	*	*	*	*	*	*	*	*	*	*
*	*	*v	*v	*	*	*	*	*	*	*	*	*	*	*
!!LO:PB:g=original
=36	=36	=36	=36	=36	=36	=36	=36	=36	=36	=36	=36	=36	=36
8G#/L	[2.E\	8e/L	.	[2.E\	<[	[2.E\	<[	4G#/)	.	4e/	.	4e/)	.
8B/J	.	8g#/J	.	.	.	.	.	.	.	.	.	.	.
4dn/	.	4b/	.	.	.	.	.	4r	.	4r	.	4r	.
4c#/	.	4a#X/	.	.	.	.	.	4r	.	4r	.	4r	.
=37	=37	=37	=37	=37	=37	=37	=37	=37	=37	=37	=37	=37	=37
2c# 2F#/	2.E\]	2an/	.	2.E\]	>]	2.E\]	>]	(2cc#^<\	.	2e^/	.	(8ff#\L	>
.	.	.	.	.	.	.	.	.	.	.	.	8cc#\J)	]
.	.	.	.	.	.	.	.	.	.	.	.	4.ee\	.
4B/	.	4ryy	.	.	.	.	.	4b\)	.	4f#/	.	.	.
.	.	.	.	.	.	.	.	.	.	.	.	8cc#\	.
=38	=38	=38	=38	=38	=38	=38	=38	=38	=38	=38	=38	=38	=38
2B/	8E\L	8g#/L	.	8E/L	.	8E/L	.	(>2B^/	.	4g#/	.	2ee\	.
.	8BB\J	8b/J	.	8BB/J	.	8BB/J	.	.	.	.	.	.	.
!	!	!LO:TX:a:t=15	!	!	!	!	!	!	!	!	!	!	!
.	4Dn\	N(<2e/	.	4Dn/	.	4Dn/	.	.	.	2e/	.	.	.
4A#X/N)	4C#\	.	.	4C#/	.	4C#/	.	4A#X/)	.	.	.	4r	.
=39	=39	=39	=39	=39	=39	=39	=39	=39	=39	=39	=39	=39	=39
!	!	!LO:TX:a:t=P:problem:łuk pomiędzy systemami	!	!	!	!	!	!	!	!	!	!	!
2.An/)	4FF#\	N(8f#/L	.	4FF#/	.	4FF#/	.	2.An/	.	8f#/L	.	8f#/L	.
.	.	8c#/J	.	.	.	.	.	.	.	8c#/J	.	8c#/J	.
.	2BB\	4.e/	.	2BB/	.	2BB/	.	.	.	4c#/	.	4.e/	.
.	.	.	.	.	.	.	.	.	.	4B/	.	.	.
.	.	8d#/	.	.	.	.	.	.	.	.	.	8d#/	.
=40	=40	=40	=40	=40	=40	=40	=40	=40	=40	=40	=40	=40	=40
2.G# 2.BB/	[2.EE\	(>4.e/	.	[2.EE/	.	2.EE/	.	(8G#/L	.	4B/	.	(>4.e/	.
.	.	.	.	.	.	.	.	8B/J)	.	.	.	.	.
.	.	.	.	.	.	.	.	[2E/	.	4r	.	.	.
.	.	8f#/L	.	.	.	.	.	.	.	.	.	8f#/L	.
.	.	8e/	.	.	.	.	.	.	.	4r	.	8e/	.
.	.	8B/J	.	.	.	.	.	.	.	.	.	8B/J)	.
=41	=41	=41	=41	=41	=41	=41	=41	=41	=41	=41	=41	=41	=41
4.BB\	4EE\]	8G#</L	.	4.EE/]	.	4.BB/	.	2.E/_	.	2.rb	.	8G#/L	.
.	.	8A</J	.	.	.	.	.	.	.	.	.	8A/J	.
.	4ryy	4.G#</	.	.	.	.	.	.	.	.	.	4.G#/	.
8C#\L	.	.	.	8C#/L	.	8C#/L	.	.	.	.	.	.	.
8BB\	4ryy	.	.	8BB/	.	8BB/	.	.	.	.	.	.	.
8GG#\J	.	8B</)	.	8GG#/J	.	8GG#/J	.	.	.	.	.	8B/	.
=42	=42	=42	=42	=42	=42	=42	=42	=42	=42	=42	=42	=42	=42
2.E;/	2.EE\	2.r;	.	2.EE;/	.	2.BB;/	.	2.E;/]	.	2G#;/	.	2.e;/	.
.	.	.	.	.	.	.	.	.	.	4ryy	.	.	.
*v	*v	*	*	*	*	*	*	*	*	*	*	*	*
==	==	==	==	==	==	==	==	==	==	==	==	==
*-	*-	*-	*-	*-	*-	*-	*-	*-	*-	*-	*-	*-
!!!system-decoration: ([g1]{p6})
!!!RDF**kern: > = above
!!!RDF**kern: < = below
!!!RDF**kern: | = vertical stroke
!!!RDF**kern: N = linked
!!!ENC: Marta Lawrence
!!!END: 2021-04-18
!!!ENC: Kamil Watkowski
!!!END: 2021-04-02
